collections/phosporicons/thin/equalizer-thin.svg

<svg xmlns="http://www.w3.org/2000/svg" viewBox="0 0 256 256" width="20" height="20"><path fill="none" d="M0 0h256v256H0z"/><path fill="none" stroke="#000" stroke-linecap="round" stroke-linejoin="round" stroke-width="8" d="M36 96h40m-40 32h40m-40 32h40m-40 32h40m32-64h40m-40 32h40m-40 32h40m32-96h40m-40-32h40m-40 64h40m-40 32h40m-40 32h40"/></svg>

<svg xmlns="http://www.w3.org/2000/svg" viewBox="0 0 256 256" width="20" height="20"><path fill="none" d="M0 0h256v256H0z"/><path fill="none" stroke="#000" stroke-linecap="round" stroke-linejoin="round" stroke-width="8" d="M36 96h40M36 128h40M36 160h40M36 192h40M108 128h40M108 160h40M108 192h40M180 96h40M180 64h40M180 128h40M180 160h40M180 192h40"/></svg>
